fd 50
repeat 10
[
  pd fd 10 pu fd 10
]

setxy -300 0
repeat 8
[
  forward 50
  repeat 3
  [
    fd 50
    rt 120
  ]
]

setxy -300 0
repeat 8
[
  forward 50
  repeat 3
  [
    fd 50
    lt 120
  ]
]

